src/icons/svg/resume.svg

<svg class="icon" viewBox="0 0 1024 1024" xmlns="http://www.w3.org/2000/svg" width="200" height="200"><defs><style/></defs><path d="M798.72 0H225.28A122.88 122.88 0 0 0 102.4 122.88v778.24A122.88 122.88 0 0 0 225.28 1024h573.44A122.88 122.88 0 0 0 921.6 901.12V122.88A122.88 122.88 0 0 0 798.72 0zm71.68 901.12a71.68 71.68 0 0 1-71.68 71.68H225.28a71.68 71.68 0 0 1-71.68-71.68V122.88a71.68 71.68 0 0 1 71.68-71.68h573.44a71.68 71.68 0 0 1 71.68 71.68z"/><path d="M262.963 215.86h163.84a25.6 25.6 0 0 0 0-51.2h-163.84a25.6 25.6 0 0 0 0 51.2zm0 132.3h163.84a25.6 25.6 0 0 0 0-51.2h-163.84a25.6 25.6 0 0 0 0 51.2zm498.074-184.32h-199.68a25.6 25.6 0 0 0-25.6 25.6v266.24a25.6 25.6 0 0 0 25.6 25.6h199.68a25.6 25.6 0 0 0 25.6-25.6V189.44a25.6 25.6 0 0 0-25.6-25.6zm-25.6 266.24h-148.48V215.86h148.48zm-305.357 0H269.517a25.6 25.6 0 0 0 0 51.2H430.08a25.6 25.6 0 0 0 0-51.2zm327.68 193.74H266.24a25.6 25.6 0 0 0 0 52.02h491.52a25.6 25.6 0 0 0 0-51.2zm0 163.84H266.24a25.6 25.6 0 0 0 0 52.02h491.52a25.6 25.6 0 0 0 0-51.2z"/></svg>

<?xml version="1.0" standalone="no"?><!DOCTYPE svg PUBLIC "-//W3C//DTD SVG 1.1//EN" "http://www.w3.org/Graphics/SVG/1.1/DTD/svg11.dtd"><svg t="1573718669777" class="icon" viewBox="0 0 1024 1024" version="1.1" xmlns="http://www.w3.org/2000/svg" p-id="10865" xmlns:xlink="http://www.w3.org/1999/xlink" width="200" height="200"><defs><style type="text/css"></style></defs><path d="M798.72 0H225.28a122.88 122.88 0 0 0-122.88 122.88v778.24a122.88 122.88 0 0 0 122.88 122.88h573.44a122.88 122.88 0 0 0 122.88-122.88V122.88a122.88 122.88 0 0 0-122.88-122.88z m71.68 901.12a71.68 71.68 0 0 1-71.68 71.68H225.28A71.68 71.68 0 0 1 153.6 901.12V122.88A71.68 71.68 0 0 1 225.28 51.2h573.44A71.68 71.68 0 0 1 870.4 122.88z" p-id="10866"></path><path d="M262.9632 215.8592h163.84a25.6 25.6 0 0 0 0-51.2h-163.84a25.6 25.6 0 0 0 0 51.2zM262.9632 348.16h163.84a25.6 25.6 0 0 0 0-51.2h-163.84a25.6 25.6 0 0 0 0 51.2zM761.0368 163.84h-199.68a25.6 25.6 0 0 0-25.6 25.6v266.24a25.6 25.6 0 0 0 25.6 25.6h199.68a25.6 25.6 0 0 0 25.6-25.6v-266.24A25.6 25.6 0 0 0 761.0368 163.84z m-25.6 266.24h-148.48V215.8592h148.48zM430.08 430.08h-160.5632a25.6 25.6 0 0 0 0 51.2H430.08a25.6 25.6 0 0 0 0-51.2zM757.76 623.8208H266.24A25.6 25.6 0 0 0 266.24 675.84h491.52a25.6 25.6 0 0 0 0-51.2zM757.76 787.6608H266.24A25.6 25.6 0 0 0 266.24 839.68h491.52a25.6 25.6 0 0 0 0-51.2z" p-id="10867"></path></svg>
